X:21046 
T:DROGHEDA WEAVERS, The 
B:DMI.0361
Z:Nordberg/Black
N:1:This tune is in the "Miscellaneous" section of DMI.
N:2:I thinned out the 16th note runs [/D/E/F/G/A/B/] at 
the beginning of mm 9 and 13 and added the 2nd ending 
on part 2.
R:jig
%Q:1/4=160
M:6/8
L:1/8
K:D
D|AFD DFD|AFD G2E|AFD DFG|AFD E2d|
AFD DFD|AFD G2E|DFA B2d|AFD E2:|
d|DFB/ c3|B3 A2D|DFA d2B|AFD E2D|
DFB c3|B3 A2B|ABc d2B|1 AFD E2:|\
[2 AFE D3|]

%%%

